mimes/48/text-x-ssa.svg

<?xml version="1.0" encoding="UTF-8" standalone="no"?>
<svg
   xmlns:dc="http://purl.org/dc/elements/1.1/"
   xmlns:cc="http://creativecommons.org/ns#"
   xmlns:rdf="http://www.w3.org/1999/02/22-rdf-syntax-ns#"
   xmlns:svg="http://www.w3.org/2000/svg"
   xmlns="http://www.w3.org/2000/svg"
   xmlns:xlink="http://www.w3.org/1999/xlink"
   version="1.1"
   width="48"
   height="48"
   id="svg3901">
  <defs
     id="defs3903">
    <linearGradient
       id="linearGradient3029">
      <stop
         id="stop3031"
         style="stop-color:#ffffff;stop-opacity:1"
         offset="0" />
      <stop
         id="stop3033"
         style="stop-color:#ffffff;stop-opacity:0.23529412"
         offset="0.01487851" />
      <stop
         id="stop3035"
         style="stop-color:#ffffff;stop-opacity:0.15686275"
         offset="0.98463625" />
      <stop
         id="stop3037"
         style="stop-color:#ffffff;stop-opacity:0.39215687"
         offset="1" />
    </linearGradient>
    <linearGradient
       id="linearGradient3600">
      <stop
         id="stop3602"
         style="stop-color:#f4f4f4;stop-opacity:1"
         offset="0" />
      <stop
         id="stop3604"
         style="stop-color:#dbdbdb;stop-opacity:1"
         offset="1" />
    </linearGradient>
    <linearGradient
       id="linearGradient5060">
      <stop
         id="stop5062"
         style="stop-color:#000000;stop-opacity:1"
         offset="0" />
      <stop
         id="stop5064"
         style="stop-color:#000000;stop-opacity:0"
         offset="1" />
    </linearGradient>
    <linearGradient
       id="linearGradient5048">
      <stop
         id="stop5050"
         style="stop-color:#000000;stop-opacity:0"
         offset="0" />
      <stop
         id="stop5056"
         style="stop-color:#000000;stop-opacity:1"
         offset="0.5" />
      <stop
         id="stop5052"
         style="stop-color:#000000;stop-opacity:0"
         offset="1" />
    </linearGradient>
    <linearGradient
       id="linearGradient3104-6">
      <stop
         offset="0"
         style="stop-color:#000000;stop-opacity:0.31782946"
         id="stop3106-3" />
      <stop
         offset="1"
         style="stop-color:#000000;stop-opacity:0.24031007"
         id="stop3108-9" />
    </linearGradient>
    <linearGradient
       xlink:href="#linearGradient3029"
       id="linearGradient3106"
       gradientUnits="userSpaceOnUse"
       gradientTransform="matrix(0.89189189,0,0,1.1351351,2.5945999,-4.7432314)"
       x1="23.99999"
       y1="5.5641499"
       x2="23.99999"
       y2="42.110645" />
    <linearGradient
       xlink:href="#linearGradient3600"
       id="linearGradient3109"
       gradientUnits="userSpaceOnUse"
       gradientTransform="matrix(0.97142632,0,0,0.93431938,0.68576678,-1.3569996)"
       x1="25.132275"
       y1="0.98520643"
       x2="25.132275"
       y2="47.013336" />
    <radialGradient
       xlink:href="#linearGradient5060"
       id="radialGradient3112"
       gradientUnits="userSpaceOnUse"
       gradientTransform="matrix(0.02303995,0,0,0.01470022,26.360882,37.040176)"
       cx="605.71429"
       cy="486.64789"
       fx="605.71429"
       fy="486.64789"
       r="117.14286" />
    <radialGradient
       xlink:href="#linearGradient5060"
       id="radialGradient3115"
       gradientUnits="userSpaceOnUse"
       gradientTransform="matrix(-0.02303994,0,0,0.01470022,21.62311,37.040176)"
       cx="605.71429"
       cy="486.64789"
       fx="605.71429"
       fy="486.64789"
       r="117.14286" />
    <linearGradient
       xlink:href="#linearGradient5048"
       id="linearGradient3118"
       gradientUnits="userSpaceOnUse"
       gradientTransform="matrix(0.06732488,0,0,0.01470022,-0.3411391,37.040146)"
       x1="302.85715"
       y1="366.64789"
       x2="302.85715"
       y2="609.50507" />
    <linearGradient
       xlink:href="#linearGradient3104-6"
       id="linearGradient3170"
       gradientUnits="userSpaceOnUse"
       gradientTransform="matrix(0.80749686,0,0,0.89471714,59.410232,-2.9773433)"
       x1="-51.786404"
       y1="50.786446"
       x2="-51.786404"
       y2="2.9062471" />
  </defs>
  <metadata
     id="metadata3906">
    <rdf:RDF>
      <cc:Work
         rdf:about="">
        <dc:format>image/svg+xml</dc:format>
        <dc:type
           rdf:resource="http://purl.org/dc/dcmitype/StillImage" />
        <dc:title />
      </cc:Work>
    </rdf:RDF>
  </metadata>
  <rect
     style="opacity:0.3;fill:url(#linearGradient3118);fill-opacity:1;fill-rule:nonzero;stroke:none;stroke-width:1;marker:none;visibility:visible;display:inline;overflow:visible"
     id="rect2879"
     y="42.429947"
     x="7.7378473"
     height="3.5700529"
     width="32.508301" />
  <path
     style="opacity:0.3;fill:url(#radialGradient3115);fill-opacity:1;fill-rule:nonzero;stroke:none;stroke-width:1;marker:none;visibility:visible;display:inline;overflow:visible"
     id="path2881"
     d="m 7.7378475,42.430102 c 0,0 0,3.569856 0,3.569856 -1.1865002,0.0067 -2.8683795,-0.799823 -2.8683795,-1.785158 0,-0.985333 1.3240446,-1.784697 2.8683795,-1.784698 z" />
  <path
     style="opacity:0.3;fill:url(#radialGradient3112);fill-opacity:1;fill-rule:nonzero;stroke:none;stroke-width:1;marker:none;visibility:visible;display:inline;overflow:visible"
     id="path2883"
     d="m 40.246148,42.430102 c 0,0 0,3.569856 0,3.569856 1.1865,0.0067 2.86838,-0.799823 2.86838,-1.785158 0,-0.985333 -1.324045,-1.784697 -2.86838,-1.784698 z" />
  <path
     style="fill:url(#linearGradient3109);fill-opacity:1;stroke:none;display:inline"
     id="path4160"
     d="m 7,1.0000001 c 7.791126,0 33.999959,0.00274 33.999959,0.00274 L 41,44 C 41,44 18.333334,44 7,44 7,29.666666 7,15.333333 7,1 z" />
  <path
     style="fill:none;stroke:url(#linearGradient3106);stroke-width:1;stroke-linecap:round;stroke-linejoin:miter;stroke-miterlimit:4;stroke-opacity:1;stroke-dasharray:none;stroke-dashoffset:0"
     id="rect6741-1"
     d="m 40.5,43.5 -33,0 0,-41.9999998 33,0 z" />
  <path
     style="fill:none;stroke:url(#linearGradient3170);stroke-width:0.99992192;stroke-linecap:butt;stroke-linejoin:round;stroke-miterlimit:4;stroke-opacity:1;stroke-dasharray:none;stroke-dashoffset:0;display:inline"
     id="path4160-6-1"
     d="m 6.4999605,0.4999623 c 8.0202885,0 35.0000415,0.00298 35.0000415,0.00298 l 3.7e-5,43.9970957 c 0,0 -23.333385,0 -35.0000785,0 0,-14.666738 0,-29.333326 0,-43.9998923 z" />
  <path
     style="opacity:0.2;fill:#ffffff;fill-opacity:1;stroke:none;stroke-width:2;stroke-miterlimit:4;stroke-dasharray:none;stroke-opacity:1"
     d="M 14.5 38 A 1.5 1.5 0 0 0 13 39.5 A 1.5 1.5 0 0 0 14.5 41 A 1.5 1.5 0 0 0 16 39.5 A 1.5 1.5 0 0 0 14.5 38 z M 19.5 38 A 1.5 1.5 0 0 0 18 39.5 A 1.5 1.5 0 0 0 19.5 41 A 1.5 1.5 0 0 0 21 39.5 A 1.5 1.5 0 0 0 19.5 38 z M 24.5 38 A 1.5 1.5 0 0 0 23 39.5 A 1.5 1.5 0 0 0 24.5 41 A 1.5 1.5 0 0 0 26 39.5 A 1.5 1.5 0 0 0 24.5 38 z M 29.5 38 A 1.5 1.5 0 0 0 28 39.5 A 1.5 1.5 0 0 0 29.5 41 A 1.5 1.5 0 0 0 31 39.5 A 1.5 1.5 0 0 0 29.5 38 z M 34.5 38 A 1.5 1.5 0 0 0 33 39.5 A 1.5 1.5 0 0 0 34.5 41 A 1.5 1.5 0 0 0 36 39.5 A 1.5 1.5 0 0 0 34.5 38 z "
     id="circle4216" />
  <path
     style="opacity:1;fill:#8d8d8d;fill-opacity:1;stroke:none;stroke-width:2;stroke-miterlimit:4;stroke-dasharray:none;stroke-opacity:1"
     d="M 14.5 37 A 1.5 1.5 0 0 0 13 38.5 A 1.5 1.5 0 0 0 14.5 40 A 1.5 1.5 0 0 0 16 38.5 A 1.5 1.5 0 0 0 14.5 37 z M 19.5 37 A 1.5 1.5 0 0 0 18 38.5 A 1.5 1.5 0 0 0 19.5 40 A 1.5 1.5 0 0 0 21 38.5 A 1.5 1.5 0 0 0 19.5 37 z M 24.5 37 A 1.5 1.5 0 0 0 23 38.5 A 1.5 1.5 0 0 0 24.5 40 A 1.5 1.5 0 0 0 26 38.5 A 1.5 1.5 0 0 0 24.5 37 z M 29.5 37 A 1.5 1.5 0 0 0 28 38.5 A 1.5 1.5 0 0 0 29.5 40 A 1.5 1.5 0 0 0 31 38.5 A 1.5 1.5 0 0 0 29.5 37 z M 34.5 37 A 1.5 1.5 0 0 0 33 38.5 A 1.5 1.5 0 0 0 34.5 40 A 1.5 1.5 0 0 0 36 38.5 A 1.5 1.5 0 0 0 34.5 37 z "
     id="path4194" />
  <path
     d="M 17.75,15 C 17.3345,15 17,15.3345 17,15.75 l 0,13.5 c 0,0.4155 0.3345,0.75 0.75,0.75 l 12.5,0 C 30.6655,30 31,29.6655 31,29.25 l 0,-13.5 C 31,15.3345 30.6655,15 30.25,15 l -12.5,0 z m 0.25,1 1,0 0,1 -1,0 0,-1 z m 2.5,0 7,0 c 0.277,0 0.5,0.223 0.5,0.5 l 0,5 c 0,0.277 -0.223,0.5 -0.5,0.5 l -7,0 C 20.223,22 20,21.777 20,21.5 l 0,-5 C 20,16.223 20.223,16 20.5,16 Z m 8.5,0 1,0 0,1 -1,0 0,-1 z m -11,2 1,0 0,1 -1,0 0,-1 z m 11,0 1,0 0,1 -1,0 0,-1 z m -11,2 1,0 0,1 -1,0 0,-1 z m 11,0 1,0 0,1 -1,0 0,-1 z m -11,2 1,0 0,1 -1,0 0,-1 z m 11,0 1,0 0,1 -1,0 0,-1 z m -8.5,1 7,0 c 0.277,0 0.5,0.223 0.5,0.5 l 0,5 c 0,0.277 -0.223,0.5 -0.5,0.5 l -7,0 C 20.223,29 20,28.777 20,28.5 l 0,-5 C 20,23.223 20.223,23 20.5,23 Z m -2.5,1 1,0 0,1 -1,0 0,-1 z m 11,0 1,0 0,1 -1,0 0,-1 z m -11,2 1,0 0,1 -1,0 0,-1 z m 11,0 1,0 0,1 -1,0 0,-1 z m -11,2 1,0 0,1 -1,0 0,-1 z m 11,0 1,0 0,1 -1,0 0,-1 z"
     id="rect3032-8"
     style="color:#000000;display:inline;overflow:visible;visibility:visible;opacity:1;fill:#8d8d8d;fill-opacity:1;fill-rule:nonzero;stroke:none;stroke-width:1;marker:none;enable-background:accumulate" />
</svg>

<?xml version="1.0" encoding="UTF-8" standalone="no"?>
<svg
   xmlns:dc="http://purl.org/dc/elements/1.1/"
   xmlns:cc="http://creativecommons.org/ns#"
   xmlns:rdf="http://www.w3.org/1999/02/22-rdf-syntax-ns#"
   xmlns:svg="http://www.w3.org/2000/svg"
   xmlns="http://www.w3.org/2000/svg"
   xmlns:xlink="http://www.w3.org/1999/xlink"
   xmlns:sodipodi="http://sodipodi.sourceforge.net/DTD/sodipodi-0.dtd"
   xmlns:inkscape="http://www.inkscape.org/namespaces/inkscape"
   version="1.1"
   width="48"
   height="48"
   id="svg3901"
   inkscape:version="0.91 r13725"
   sodipodi:docname="text-x-ssa.svg">
  <sodipodi:namedview
     pagecolor="#ffffff"
     bordercolor="#666666"
     borderopacity="1"
     objecttolerance="10"
     gridtolerance="10"
     guidetolerance="10"
     inkscape:pageopacity="0"
     inkscape:pageshadow="2"
     inkscape:window-width="3200"
     inkscape:window-height="1674"
     id="namedview38"
     showgrid="false"
     inkscape:zoom="29.083333"
     inkscape:cx="24"
     inkscape:cy="24"
     inkscape:window-x="0"
     inkscape:window-y="60"
     inkscape:window-maximized="1"
     inkscape:current-layer="svg3901" />
  <defs
     id="defs3903">
    <linearGradient
       id="linearGradient3029">
      <stop
         id="stop3031"
         style="stop-color:#ffffff;stop-opacity:1"
         offset="0" />
      <stop
         id="stop3033"
         style="stop-color:#ffffff;stop-opacity:0.23529412"
         offset="0.01487851" />
      <stop
         id="stop3035"
         style="stop-color:#ffffff;stop-opacity:0.15686275"
         offset="0.98463625" />
      <stop
         id="stop3037"
         style="stop-color:#ffffff;stop-opacity:0.39215687"
         offset="1" />
    </linearGradient>
    <linearGradient
       id="linearGradient3600">
      <stop
         id="stop3602"
         style="stop-color:#f4f4f4;stop-opacity:1"
         offset="0" />
      <stop
         id="stop3604"
         style="stop-color:#dbdbdb;stop-opacity:1"
         offset="1" />
    </linearGradient>
    <linearGradient
       id="linearGradient5060">
      <stop
         id="stop5062"
         style="stop-color:#000000;stop-opacity:1"
         offset="0" />
      <stop
         id="stop5064"
         style="stop-color:#000000;stop-opacity:0"
         offset="1" />
    </linearGradient>
    <linearGradient
       id="linearGradient5048">
      <stop
         id="stop5050"
         style="stop-color:#000000;stop-opacity:0"
         offset="0" />
      <stop
         id="stop5056"
         style="stop-color:#000000;stop-opacity:1"
         offset="0.5" />
      <stop
         id="stop5052"
         style="stop-color:#000000;stop-opacity:0"
         offset="1" />
    </linearGradient>
    <linearGradient
       id="linearGradient3104-6">
      <stop
         offset="0"
         style="stop-color:#000000;stop-opacity:0.31782946"
         id="stop3106-3" />
      <stop
         offset="1"
         style="stop-color:#000000;stop-opacity:0.24031007"
         id="stop3108-9" />
    </linearGradient>
    <linearGradient
       xlink:href="#linearGradient3029"
       id="linearGradient3106"
       gradientUnits="userSpaceOnUse"
       gradientTransform="matrix(0.89189189,0,0,1.1351351,2.5945999,-4.7432314)"
       x1="23.99999"
       y1="5.5641499"
       x2="23.99999"
       y2="42.110645" />
    <linearGradient
       xlink:href="#linearGradient3600"
       id="linearGradient3109"
       gradientUnits="userSpaceOnUse"
       gradientTransform="matrix(0.97142632,0,0,0.93431938,0.68576678,-1.3569996)"
       x1="25.132275"
       y1="0.98520643"
       x2="25.132275"
       y2="47.013336" />
    <radialGradient
       xlink:href="#linearGradient5060"
       id="radialGradient3112"
       gradientUnits="userSpaceOnUse"
       gradientTransform="matrix(0.02303995,0,0,0.01470022,26.360882,37.040176)"
       cx="605.71429"
       cy="486.64789"
       fx="605.71429"
       fy="486.64789"
       r="117.14286" />
    <radialGradient
       xlink:href="#linearGradient5060"
       id="radialGradient3115"
       gradientUnits="userSpaceOnUse"
       gradientTransform="matrix(-0.02303994,0,0,0.01470022,21.62311,37.040176)"
       cx="605.71429"
       cy="486.64789"
       fx="605.71429"
       fy="486.64789"
       r="117.14286" />
    <linearGradient
       xlink:href="#linearGradient5048"
       id="linearGradient3118"
       gradientUnits="userSpaceOnUse"
       gradientTransform="matrix(0.06732488,0,0,0.01470022,-0.3411391,37.040146)"
       x1="302.85715"
       y1="366.64789"
       x2="302.85715"
       y2="609.50507" />
    <linearGradient
       xlink:href="#linearGradient3104-6"
       id="linearGradient3170"
       gradientUnits="userSpaceOnUse"
       gradientTransform="matrix(0.80749686,0,0,0.89471714,59.410232,-2.9773433)"
       x1="-51.786404"
       y1="50.786446"
       x2="-51.786404"
       y2="2.9062471" />
  </defs>
  <metadata
     id="metadata3906">
    <rdf:RDF>
      <cc:Work
         rdf:about="">
        <dc:format>image/svg+xml</dc:format>
        <dc:type
           rdf:resource="http://purl.org/dc/dcmitype/StillImage" />
        <dc:title />
      </cc:Work>
    </rdf:RDF>
  </metadata>
  <rect
     style="opacity:0.3;fill:url(#linearGradient3118);fill-opacity:1;fill-rule:nonzero;stroke:none;stroke-width:1;marker:none;visibility:visible;display:inline;overflow:visible"
     id="rect2879"
     y="42.429947"
     x="7.7378473"
     height="3.5700529"
     width="32.508301" />
  <path
     style="opacity:0.3;fill:url(#radialGradient3115);fill-opacity:1;fill-rule:nonzero;stroke:none;stroke-width:1;marker:none;visibility:visible;display:inline;overflow:visible"
     id="path2881"
     d="m 7.7378475,42.430102 c 0,0 0,3.569856 0,3.569856 -1.1865002,0.0067 -2.8683795,-0.799823 -2.8683795,-1.785158 0,-0.985333 1.3240446,-1.784697 2.8683795,-1.784698 z" />
  <path
     style="opacity:0.3;fill:url(#radialGradient3112);fill-opacity:1;fill-rule:nonzero;stroke:none;stroke-width:1;marker:none;visibility:visible;display:inline;overflow:visible"
     id="path2883"
     d="m 40.246148,42.430102 c 0,0 0,3.569856 0,3.569856 1.1865,0.0067 2.86838,-0.799823 2.86838,-1.785158 0,-0.985333 -1.324045,-1.784697 -2.86838,-1.784698 z" />
  <path
     style="fill:url(#linearGradient3109);fill-opacity:1;stroke:none;display:inline"
     id="path4160"
     d="m 7,1.0000001 c 7.791126,0 33.999959,0.00274 33.999959,0.00274 L 41,44 C 41,44 18.333334,44 7,44 7,29.666666 7,15.333333 7,1 z" />
  <path
     style="fill:none;stroke:url(#linearGradient3106);stroke-width:1;stroke-linecap:round;stroke-linejoin:miter;stroke-miterlimit:4;stroke-opacity:1;stroke-dasharray:none;stroke-dashoffset:0"
     id="rect6741-1"
     d="m 40.5,43.5 -33,0 0,-41.9999998 33,0 z" />
  <path
     style="fill:none;stroke:url(#linearGradient3170);stroke-width:0.99992192;stroke-linecap:butt;stroke-linejoin:round;stroke-miterlimit:4;stroke-opacity:1;stroke-dasharray:none;stroke-dashoffset:0;display:inline"
     id="path4160-6-1"
     d="m 6.4999605,0.4999623 c 8.0202885,0 35.0000415,0.00298 35.0000415,0.00298 l 3.7e-5,43.9970957 c 0,0 -23.333385,0 -35.0000785,0 0,-14.666738 0,-29.333326 0,-43.9998923 z" />
  <path
     style="opacity:1;fill:#7e8087;fill-opacity:1;stroke:none;stroke-width:2;stroke-miterlimit:4;stroke-dasharray:none;stroke-opacity:1"
     d="M 17.75 15 C 17.3345 15 17 15.3345 17 15.75 L 17 29.25 C 17 29.6655 17.3345 30 17.75 30 L 30.25 30 C 30.6655 30 31 29.6655 31 29.25 L 31 15.75 C 31 15.3345 30.6655 15 30.25 15 L 17.75 15 z M 18 16 L 19 16 L 19 17 L 18 17 L 18 16 z M 20.5 16 L 27.5 16 C 27.777 16 28 16.223 28 16.5 L 28 21.5 C 28 21.777 27.777 22 27.5 22 L 20.5 22 C 20.223 22 20 21.777 20 21.5 L 20 16.5 C 20 16.223 20.223 16 20.5 16 z M 29 16 L 30 16 L 30 17 L 29 17 L 29 16 z M 18 18 L 19 18 L 19 19 L 18 19 L 18 18 z M 29 18 L 30 18 L 30 19 L 29 19 L 29 18 z M 18 20 L 19 20 L 19 21 L 18 21 L 18 20 z M 29 20 L 30 20 L 30 21 L 29 21 L 29 20 z M 18 22 L 19 22 L 19 23 L 18 23 L 18 22 z M 29 22 L 30 22 L 30 23 L 29 23 L 29 22 z M 20.5 23 L 27.5 23 C 27.777 23 28 23.223 28 23.5 L 28 28.5 C 28 28.777 27.777 29 27.5 29 L 20.5 29 C 20.223 29 20 28.777 20 28.5 L 20 23.5 C 20 23.223 20.223 23 20.5 23 z M 18 24 L 19 24 L 19 25 L 18 25 L 18 24 z M 29 24 L 30 24 L 30 25 L 29 25 L 29 24 z M 18 26 L 19 26 L 19 27 L 18 27 L 18 26 z M 29 26 L 30 26 L 30 27 L 29 27 L 29 26 z M 18 28 L 19 28 L 19 29 L 18 29 L 18 28 z M 29 28 L 30 28 L 30 29 L 29 29 L 29 28 z M 14.5 37 A 1.5 1.5 0 0 0 13 38.5 A 1.5 1.5 0 0 0 14.5 40 A 1.5 1.5 0 0 0 16 38.5 A 1.5 1.5 0 0 0 14.5 37 z M 19.5 37 A 1.5 1.5 0 0 0 18 38.5 A 1.5 1.5 0 0 0 19.5 40 A 1.5 1.5 0 0 0 21 38.5 A 1.5 1.5 0 0 0 19.5 37 z M 24.5 37 A 1.5 1.5 0 0 0 23 38.5 A 1.5 1.5 0 0 0 24.5 40 A 1.5 1.5 0 0 0 26 38.5 A 1.5 1.5 0 0 0 24.5 37 z M 29.5 37 A 1.5 1.5 0 0 0 28 38.5 A 1.5 1.5 0 0 0 29.5 40 A 1.5 1.5 0 0 0 31 38.5 A 1.5 1.5 0 0 0 29.5 37 z M 34.5 37 A 1.5 1.5 0 0 0 33 38.5 A 1.5 1.5 0 0 0 34.5 40 A 1.5 1.5 0 0 0 36 38.5 A 1.5 1.5 0 0 0 34.5 37 z "
     id="path4194" />
</svg>
